icons/solid/shopping-cart.svg

<svg width="24" height="24" viewBox="0 0 24 24" fill="none" xmlns="http://www.w3.org/2000/svg">
<path fill-rule="evenodd" clip-rule="evenodd" d="M2 3C1.44772 3 1 3.44772 1 4C1 4.55228 1.44772 5 2 5H3.71922L4.02409 6.21945L6.01942 16.1961C6.1129 16.6635 6.52332 17 7 17H18C18.4767 17 18.8871 16.6635 18.9806 16.1961L20.9806 6.19612C21.0393 5.90234 20.9633 5.5977 20.7733 5.36601C20.5834 5.13432 20.2996 5 20 5H5.78078L5.47014 3.75746C5.35885 3.3123 4.95887 3 4.5 3H2ZM16 18C14.8954 18 14 18.8954 14 20C14 21.1046 14.8954 22 16 22C17.1046 22 18 21.1046 18 20C18 18.8954 17.1046 18 16 18ZM9 18C7.89543 18 7 18.8954 7 20C7 21.1046 7.89543 22 9 22C10.1046 22 11 21.1046 11 20C11 18.8954 10.1046 18 9 18Z" fill="currentColor"/>
</svg>

<svg width="24" height="24" fill="none" xmlns="http://www.w3.org/2000/svg"><path fill-rule="evenodd" clip-rule="evenodd" d="M2 3a1 1 0 000 2h1.72l.304 1.22 1.995 9.976A1 1 0 007 17h11a1 1 0 00.98-.804l2-10A1 1 0 0020 5H5.78l-.31-1.243A1 1 0 004.5 3H2zm14 15a2 2 0 100 4 2 2 0 000-4zm-7 0a2 2 0 100 4 2 2 0 000-4z" fill="currentColor"/></svg>
